!!!COM: Vivaldi, Antonio Lucio
!!!CDT: 1678/03/04-1741/08/28
!!!OPR: 12 sonatas for two violins and basso continuo
!!!OTL: Sonata in E major, op. @{OPS}, no. @{ONM} (@{SCT})
!!!OPS: 1
!!!ONM: 4
!!!OMV: 5. Giga
!!!SCT: RV 66
!!!SCA: Antonio Vivaldi: Thematisch-systematisches Verzeichnis seiner Werke (Ryom-Verzeichnis)
!!!OMD: Allegro
!!!key: E
**kern	**fb	**kern	**kern
*part3	*	*part2	*part1
*staff3	*	*staff2	*staff1
*ICstr&ICklav	*	*ICstr	*ICstr
*Icello&Icemba	*	*Ivioln	*Ivioln
*	*	*I#2	*I#1
*I"Violoncello\nContinuo	*	*I"Violin 2	*I"Violin 1
*I'bc	*	*I'v2	*I'v1
*>[A,A,B,B]	*>[A,A,B,B]	*>[A,A,B,B]	*>[A,A,B,B]
*>norep[A,B]	*>norep[A,B]	*>norep[A,B]	*>norep[A,B]
*>A	*>A	*>A	*>A
*clefF4	*	*clefG2	*clefG2
*k[f#c#g#d#]	*	*k[f#c#g#d#]	*k[f#c#g#d#]
*E:	*	*E:	*E:
*M12/8	*	*M12/8	*M12/8
*MM132	*	*MM132	*MM132
8E\	.	8g#y/	8ee\
=1	=1	=1	=1
4.E\	.	4.g#y/	4ee\
.	.	.	8b\
8r	.	4r	4b\
8r	.	.	.
8E\	.	8b\	8gg#y\
4.E\	.	4.b\	4gg#y\
.	.	.	8ee\
8r	.	4r	4ee\
8r	.	.	.
8G#y\	6	8ee\	8bb\
=2	=2	=2	=2
4.G#y\	.	4.ee\	8bb\L
.	.	.	8aa\
.	.	.	8gg#y\J
4.A#X\	6	4.cc#y\	8ff#y\L
.	.	.	8gg#y\
.	5	.	8ee\J
[4.B\	.	4.f#y/	8dd#y\L
.	.	.	8cc#y\
.	.	.	8dd#y\J
4B\]	.	4r	8b\L
.	.	.	8cc#y\
8An\	4 2	8ff#y\	8dd#y\J
=3	=3	=3	=3
8G#y\L	6	4b\	4ee\
8F#y\	.	.	.
8E\J	.	8ee\	8g#y/
4B\	#	8dd#y\L	4B/
.	.	8ee\	.
8BB/	.	8ff#y\J	8dd#y\
2.E\	.	8ee\L	4.e/
.	.	8bb\	.
.	.	8aa\J	.
.	.	8gg#y\L	4r
.	.	8aa\	.
.	.	8bb\J	8r
=4	=4	=4	=4
2.G#y\	6	4.ee\	8r
.	.	.	8ee\L
.	.	.	8dd#y\J
.	.	4r	8ee\L
.	.	.	8ff#y\
.	.	8r	8gg#y\J
2.A\	.	8r	2.cc#y\
.	.	8ee\L	.
.	.	8dd#y\J	.
.	.	8ee\L	.
.	.	8ff#y\	.
.	.	8gg#y\J	.
!!LO:LB:g=original
=5	=5	=5	=5
2.F#y\	7	2.aa\	8r
.	.	.	8ff#y\L
.	.	.	8ee\J
.	.	.	8ff#y\L
.	.	.	8gg#y\
.	.	.	8aa\J
2.B\	3	8r	2.dd#y\
.	.	8ff#y\L	.
.	.	8ee\J	.
.	.	8ff#y\L	.
.	.	8gg#y\	.
.	.	8aa\J	.
=6	=6	=6	=6
2.G#y\	7	2.bb\	8r
.	.	.	8gg#y\L
.	.	.	8ff#y\J
.	.	.	8gg#y\L
.	.	.	8aa\
.	.	.	8bb\J
[4.c#y\	3	8r	2.ee\
.	.	8gg#y\L	.
.	.	8ff#y\J	.
4c#y\]	.	8gg#y\L	.
.	.	8aa\	.
8B\	4 2	8bb\J	.
=7	=7	=7	=7
8A#X\L	6	4ccc#y\	8r
8G#y\	.	.	8ee\L
8F#y\J	.	8ff#y\	8dd#y\J
8G#y\L	6	[4.bb\	8ee\L
8F#y\	.	.	8dd#y\
8E\J	.	.	8cc#y\J
4D#y\	6	4bb\]	4ff#y\
8E\	7 5	8dd#y\	8b\
4F#y\	6 4	4dd#y\	4b\
8FF#y/	5 #	8cc#y\	8a#X/
=8	=8	=8	=8
4.BB/	.	4.b\	8b\L
.	.	.	8ff#y\
.	.	.	8ee\J
4r	.	4r	8dd#y\L
.	.	.	8ee\
8r	.	8r	8ff#y\J
4.BB/	.	8r	4.b\
.	.	8ff#y\L	.
.	.	8ee\J	.
8r	.	8dd#y\L	8r
8r	.	8ee\	8r
8d#y\	.	8ff#y\J	8ff#y\
=9	=9	=9	=9
4.e\	5	4.b\	(4gg#y\
.	6	.	8cc#y\)
4.d#y\	7	4r	(4ff#y\
.	6	8ff#y\	8b\)
4.c#y\	7	(4gg#y\	(4ee\
.	6#/	8cc#y\)	8a#X/)
8d#y\L	6	(4ff#y\	[4.b\
8c#y\	.	.	.
8B\J	.	8b\)	.
!!LO:LB:g=original
=10	=10	=10	=10
4.E\	6 5	4.cc#y\	8.b\L]
.	.	.	16cc#y\k
.	.	.	8b\J
4.F#y\	#	4cc#y\	4f#y/
.	.	8ff#y\	8a#X/
4.BB/	.	4.dd#y\	4.B/
4r	.	4r	4r
=:|!|:	=:|!|:	=:|!|:	=:|!|:
*>B	*>B	*>B	*>B
8C#y/	.	8ee\	8gg#y\
=11	=11	=11	=11
4.C#y/	.	4.ee\	8gg#y\L
.	.	.	8ff#y\
.	.	.	8ee\J
4.F#y\	6 5	4r	8dd#y\L
.	.	.	8ee\
.	.	8aa\	8cc#y\J
4.G#y\	#	4.dd#y\	8b#X/L
.	.	.	8g#y/
.	.	.	8b#y/J
4.E\	6	4r	8cc#y/L
.	.	.	8e/
.	.	8gg#y\	8cc#y/J
=12	=12	=12	=12
4.F#y\	6 5	4dd#y\	8f#y/L
.	.	.	8b#X/
.	.	8ee\	8cc#y/J
4.G#y\	6 4	4ee\	4g#y/
.	5 #	8dd#y\	8b#X\
[4.C#y/	.	8cc#y\L	4.cc#y\
.	.	8gg#y\	.
.	.	8ff#y\J	.
4C#y/]	.	8ee\L	8r
.	.	8ff#y\	8r
8BB/	5	8dd#y\J	8ff#y\
=13	=13	=13	=13
4.AA#X/	6	4.cc#y\	8ff#y\L
.	.	.	8cc#y\
.	.	.	8a#X\J
8r	.	4r	8f#y\L
8r	.	.	8ff#y\
8AA#y/	.	8cc#y\	8ee\J
4.BB/	.	4.f#y/	8dd#y\L
.	.	.	8ee\
.	.	.	8ff#y\J
4r	.	4r	4b\
8r	.	8r	8bb\
!!LO:LB:g=original
=14	=14	=14	=14
4.D#y\	6	4.ff#y\	8bb\L
.	.	.	8ff#y\
.	.	.	8dd#y\J
8r	.	4r	8b\L
8r	.	.	8bb\
8D#y\	.	8ff#y\	8aa\J
4.E\	.	4.b\	8gg#y\L
.	.	.	8aa\
.	.	.	8bb\J
8r	.	4r	4ee\
8r	.	.	.
8G#y\	6	8b\	8ee\
=15	=15	=15	=15
4.A\	.	4.cc#y\	(8ee\L
.	.	.	8dd#y\
.	.	.	8cc#y\J)
8r	.	(8ee\L	(8cc#y\L
8r	.	8dd#y\	8b\
8G#y\	4 2	8cc#y\J)	8a\J)
4.F#y\	5	4.cc#y\	(8aa\L
.	.	.	8gg#y\
.	.	.	8ff#y\J)
8r	.	(8aa\L	(8ff#y\L
8r	.	8gg#y\	8ee\
8AA/	6	8ff#y\J)	8dd#y\J)
=16	=16	=16	=16
4.BB/	.	4.ff#y\	(8dd#y\L
.	.	.	8cc#y\
.	.	.	8dd#y\J)
8r	.	4r	4b\
8r	.	.	.
8G#y\	6	8ee\	8b\
4.A\	5	(8ee\L	(8cc#y\L
.	.	8dd#y\	8b\
.	.	8cc#y\J)	8a\J)
8r	.	4r	(8cc#y\L
8r	.	.	8b\
8A#X\	6	8ff#y\	8cc#y\J)
=17	=17	=17	=17
4.B\	5	(8ff#y\L	(8dd#y\L
.	.	8ee\	8cc#y\
.	.	8dd#y\J)	8b\J)
8r	.	4r	(8dd#y\L
8r	.	.	8cc#y\
8B#X\	6	8gg#y\	8dd#y\J)
4.c#y\	5	(8gg#y\L	(8ee\L
.	.	8ff#y\	8dd#y\
.	.	8ee\J)	8cc#y\J)
8r	.	4r	(8ee\L
8r	.	.	8dd#y\
8c#y\	6	8aa\	8ee\J)
=18	=18	=18	=18
4.d#y\	5	(8aa\L	(8ff#y\L
.	.	8gg#y\	8ee\
.	.	8ff#y\J)	8dd#y\J)
8r	.	4r	(8ff#y\L
8r	.	.	8ee\
8D#y\	6	8bb\	8ff#y\J)
4.E\	5	(8bb\L	(8gg#y\L
.	.	8aa\	8ff#y\
.	.	8gg#y\J)	8ee\J)
8r	.	4r	(8gg#y\L
8r	.	.	8ff#y\
8E\	6	8ee\	8gg#y\J)
!!LO:PB:g=original
=19	=19	=19	=19
4.F#y\	5	4.cc#y\	(8aa\L
.	.	.	8gg#y\
.	.	.	8ff#y\J)
4G#y\	6	4r	4bb\
8A\	.	8cc#y\	8ee\
4.B\	.	4f#y/	(8dd#y\L
.	.	.	8cc#y\
.	.	8dd#y\	8b\J)
8c#y\L	6	4ee\	[4.aa\
8B\	.	.	.
8A\J	.	8ff#y\	.
=20	=20	=20	=20
4B\	7	4dd#y\	8aa\L]
.	.	.	8bb\
8E\	.	8ee\	8gg#y\J
4B\	6 4	4ee\	4gg#y\
8BB/	5 3	8dd#y\	8ff#y\
2.E\	.	8ee\L	4.ee\
.	.	8bb\	.
.	.	8aa\J	.
.	.	8gg#y\L	4r
.	.	8aa\	.
.	.	8bb\J	8r
=21	=21	=21	=21
2.G#y\	6	4.ee\	8r
.	.	.	8ee\L
.	.	.	8dd#y\J
.	.	4r	8ee\L
.	.	.	8ff#y\
.	.	8r	8gg#y\J
2.A\	.	8r	2.cc#y\
.	.	8ee\L	.
.	.	8dd#y\J	.
.	.	8ee\L	.
.	.	8ff#y\	.
.	.	8gg#y\J	.
=22	=22	=22	=22
2.F#y\	7	2.aa\	8r
.	.	.	8ff#y\L
.	.	.	8ee\J
.	.	.	8ff#y\L
.	.	.	8gg#y\
.	.	.	8aa\J
2.B\	3	8r	2.dd#y\
.	.	8ff#y\L	.
.	.	8ee\J	.
.	.	8ff#y\L	.
.	.	8gg#y\	.
.	.	8aa\J	.
=23	=23	=23	=23
2.G#y\	7	2.bb\	8r
.	.	.	8gg#y\L
.	.	.	8ff#y\J
.	.	.	8gg#y\L
.	.	.	8aa\
.	.	.	8bb\J
2.c#y\	3	8r	2.ee\
.	.	8gg#y\L	.
.	.	8ff#y\J	.
.	.	8gg#y\L	.
.	.	8aa\	.
.	.	8bb\J	.
!!LO:LB:g=original
=24	=24	=24	=24
2.A\	5	2.ccc#y\	8r
.	.	.	8aa\L
.	.	.	8gg#y\J
.	.	.	8aa\L
.	.	.	8bb\
.	.	.	8ccc#y\J
2.AA/	6	8r	8r
.	.	8aa\L	8ff#y\L
.	.	8gg#y\J	8ee\J
.	.	8aa\L	8ff#y\L
.	.	8bb\	8gg#y\
.	.	8ccc#y\J	8aa\J
=25	=25	=25	=25
[2.BB/	.	8r	8r
.	.	8ff#y\L	8dd#y\L
.	.	8ee\J	8cc#y\J
.	.	8ff#y\L	8dd#y\L
.	.	8gg#y\	8ee\
.	.	8aa\J	8ff#y\J
4BB/]	.	4dd#y\	4b\
8GG#y/	6	8gg#y\	8ee\
4AA/	6 5	4.ff#y\	4ee\
8BB/	.	.	8dd#y\
=26	=26	=26	=26
4.E\	.	4.ee\	8ee\L
.	.	.	8b\
.	.	.	8a\J
4r	.	4r	8g#y/L
.	.	.	8a/
8r	.	8r	8b/J
4.E\	.	8r	4.e/
.	.	8b/L	.
.	.	8a/J	.
8r	.	8g#y/L	8r
8r	.	8a/	8r
8G#y\	6	8b/J	8b\
=27	=27	=27	=27
4.A\	5	4.e/	(4cc#y\
.	6	.	8f#y/)
4.G#y\	7	4r	(4b\
.	6	8b\	8e/)
4.F#y\	7	4cc#y\	(4a/
.	6	8f#y/	8d#y/)
8G#y\L	6	(4b\	[4.e/
8F#y\	.	.	.
8E\J	.	8e/)	.
=28	=28	=28	=28
4.AA/	6 5	[4.f#y/	8.e/L]
.	.	.	16f#y/k
.	.	.	8e/J
4.BB/	.	4f#y/]	4B/
.	.	8b\	8d#y/
2.EE/	.	2.g#y/	2.e/
=:|!	=:|!	=:|!	=:|!
*-	*-	*-	*-
!!!SMS: RV 66 / Estienne Roger (No. 363), Amsterdam [facs.]
!!!ENC: Fran Bennion   rev. 05/12/21 E Correia
!!!END: 2004/10/04
!!!ONB: Converted from MuseData with musedata2hum on Sat May 11 12:01:54 2024
!!!YEM: (C) 2004, 2019 Center for Computer Assisted Research in the Humanities
!!!system-decoration: [(s1,s2,s3)]
!!!URL-info: https://wiki.ccarh.org/wiki/MuseData:_Antonio_Vivaldi#Op._1:_Suonate_da_camera_a_tr.C3.A8.2C_due_violini_e_violone_o_cembalo Information about Vivaldi Op. 1 on the CCARH wiki
!!!URL-pdf: https://pdf.musedata.org/vivaldi-op01-no04.pdf#page=5 MuseData edition
!!!URL-pdf: https://s9.imslp.org/files/imglnks/usimg/1/18/IMSLP280399-PMLP10351-Vivaldi_Sonatas_Op_1_-_Violino_Primo.pdf#page=8 Violino primo part, Amsterdam: Estienne Roger, n.d.(ca.1723). Plate 363.
!!!URL-pdf: https://s9.imslp.org/files/imglnks/usimg/d/d5/IMSLP280400-PMLP10351-Vivaldi_Sonatas_Op_1_-_Violino_Secondo.pdf#page=7 Violino secondo part, Amsterdam: Estienne Roger, n.d.(ca.1723). Plate 363.
!!!URL-pdf: https://s9.imslp.org/files/imglnks/usimg/8/89/IMSLP280401-PMLP10351-Vivaldi_Sonatas_Op_1_-_Organo_e_Violoncello.pdf#page=7 Organo e Violoncello parts, Amsterdam: Estienne Roger, n.d.(ca.1723). Plate 363.
!!!URL-youtube: https://www.youtube.com/watch?v=P5HHPe_W6Uo&t=4129s L'Arte dell'Arco
!!!title: @{OTL}, mov. @{OMV}
!!!filter-vcross: vcross
!!!EEV: 2024/05/11
!!!source-file: https://bitbucket.org/musedata/vivaldi/src/master/roger/op1/no04/stage2/05/01
!!!source-file: https://bitbucket.org/musedata/vivaldi/src/master/roger/op1/no04/stage2/05/02
!!!source-file: https://bitbucket.org/musedata/vivaldi/src/master/roger/op1/no04/stage2/05/03
!!!source-file: https://bitbucket.org/musedata/vivaldi/src/master/roger/op1/no04/stage2/05/04
